X:2848
T:Polonäs
T:ur Kumlins notsamling (nr 133)
B:Kumlins notsamling, nr 133
B:http://www.smus.se/earkiv/fmk/browselarge.php?lang=sw&katalogid=Ma+4&bildnr=00032
O:Närke
R:Slängpolska
Z:Nils Liberg
M:3/4
L:1/16
K:Em
b4 g2fe f2e^d | e2g2 B2A2 G2F2 | G4 F2BA G2F2 | EFGA B2FD B,4 |
b4 g2fe f2e^d | e2g2 B2A2 G2F2 | E2b2 B2a2 g2f2 | e2BG E8 ::
d4 F2Bd edcB | c4 A,8 | c4 E2Ac dcBA | B4 G,8 |
b4 g2fe f2e^d | e2g2 B2A2 G2F2 | E2b2 B2a2 g2f2 | e2BG E8 :| 
(:musicend:)
(:music:)
